src/images/icons/bagMob.svg

<svg width="36" height="37" viewBox="0 0 36 37" fill="none" xmlns="http://www.w3.org/2000/svg">
<path d="M21.9858 35.4648H3.89442C2.2741 35.4648 1.01534 34.032 1.24299 32.4117L4.29616 10.5306C4.48363 9.20488 5.60849 8.22733 6.9476 8.22733H29.1367C30.4758 8.22733 31.6006 9.21828 31.7881 10.5306L33.0469 19.5964M12.2509 16.1013V7.2498C12.2509 4.04933 14.8488 1.46484 18.0358 1.46484C21.2363 1.46484 23.8208 4.06272 23.8208 7.2498V16.1013M29.3247 22.288V35.4648M29.3247 22.288L23.4059 28.2069M29.3247 22.288L35.2571 28.2069" stroke="white" stroke-width="1.5" stroke-miterlimit="10"/>
</svg>

<svg width="36" height="37" fill="none" xmlns="http://www.w3.org/2000/svg"><path d="M21.986 35.465H3.894a2.679 2.679 0 0 1-2.651-3.053L4.296 10.53a2.67 2.67 0 0 1 2.652-2.304h22.189c1.339 0 2.464.991 2.651 2.304l1.259 9.065M12.25 16.101V7.25c0-3.2 2.598-5.785 5.785-5.785 3.2 0 5.785 2.598 5.785 5.785V16.1m5.504 6.187v13.177m0-13.177-5.92 5.919m5.92-5.919 5.932 5.919" stroke="#fff" stroke-width="1.5" stroke-miterlimit="10"/></svg>
